gama.ui.shared/icons_svg/light/status/status.progress2.svg

<svg height="24.75" viewBox="-970.281 -3567.303 24.75 24.75" width="24.75" xmlns="http://www.w3.org/2000/svg"><path d="m-956.8327-3547.8984c2.1087-.3221 3.9879-1.5739 5.0853-3.4746 1.8817-3.2593.895-7.4155-2.2281-9.482-.2048-.1356-.2609-.4114-.1254-.616.1354-.2048.4112-.261.6159-.1255 3.5144 2.3255 4.6244 7.0012 2.5074 10.6679-1.228 2.127-3.3274 3.532-5.684 3.9032l2.188 1.2634c.2126.1226.2854.3944.1627.607-.1228.2125-.3946.2854-.6072.1626l-3.0792-1.7776c-.2125-.123-.2854-.3947-.1626-.6073l1.7777-3.0792c.1228-.2125.3946-.2855.6072-.1625.2125.1226.2854.3944.1626.607zm-2.1462-14.0604c-2.1085.3222-3.9879 1.5738-5.0853 3.4748-1.8878 3.2695-.8883 7.44 2.2551 9.5.2053.1343.2627.41.1282.615-.1346.2054-.4101.263-.6154.1283-3.5372-2.3178-4.6615-7.0093-2.5377-10.6879 1.228-2.127 3.3276-3.5319 5.684-3.9031l-2.188-1.2633c-.2126-.1227-.2854-.3945-.1627-.607.1227-.2126.3946-.2855.6071-.1628l3.0792 1.7778c.2126.1228.2854.3946.1627.607l-1.7778 3.0794c-.1227.2126-.3945.2854-.6071.1626-.2126-.1227-.2854-.3945-.1627-.607z" fill="#518738"/></svg>

<?xml version="1.0" encoding="UTF-8" standalone="no"?>
<!DOCTYPE svg PUBLIC "-//W3C//DTD SVG 1.1//EN" "http://www.w3.org/Graphics/SVG/1.1/DTD/svg11.dtd">
<svg version="1.1" xmlns="http://www.w3.org/2000/svg" xmlns:xl="http://www.w3.org/1999/xlink" xmlns:dc="http://purl.org/dc/elements/1.1/" viewBox="-970.2813 -3567.3027 24.75 24.75" width="24.75" height="24.75">
  <defs/>
  <g id="SOURCES" stroke-dasharray="none" fill="none" stroke="none" fill-opacity="1" stroke-opacity="1">
    <title>SOURCES</title>
    <g id="SOURCES_Calque_1">
      <title>Calque 1</title>
      <g id="Graphic_6514">
        <path d="M -956.8327 -3547.8984 C -954.724 -3548.2205 -952.8448 -3549.4723 -951.7474 -3551.373 C -949.8657 -3554.6323 -950.8524 -3558.7885 -953.9755 -3560.855 C -954.1803 -3560.9906 -954.2364 -3561.2664 -954.1009 -3561.471 C -953.9655 -3561.6758 -953.6897 -3561.732 -953.485 -3561.5965 C -949.9706 -3559.271 -948.8606 -3554.5953 -950.9776 -3550.9286 C -952.2056 -3548.8016 -954.305 -3547.3966 -956.6616 -3547.0254 L -954.4736 -3545.762 C -954.261 -3545.6394 -954.1882 -3545.3676 -954.3109 -3545.155 C -954.4337 -3544.9425 -954.7055 -3544.8696 -954.9181 -3544.9924 L -957.9973 -3546.77 C -958.2098 -3546.893 -958.2827 -3547.1647 -958.1599 -3547.3773 L -956.3822 -3550.4565 C -956.2594 -3550.669 -955.9876 -3550.742 -955.775 -3550.619 C -955.5625 -3550.4964 -955.4896 -3550.2246 -955.6124 -3550.012 L -956.8327 -3547.8984 Z M -958.9789 -3561.9588 C -961.0874 -3561.6366 -962.9668 -3560.385 -964.0642 -3558.484 C -965.952 -3555.2145 -964.9525 -3551.044 -961.8091 -3548.984 C -961.6038 -3548.8497 -961.5464 -3548.574 -961.6809 -3548.369 C -961.8155 -3548.1636 -962.091 -3548.106 -962.2963 -3548.2407 C -965.8335 -3550.5585 -966.9578 -3555.25 -964.834 -3558.9286 C -963.606 -3561.0556 -961.5064 -3562.4605 -959.15 -3562.8317 L -961.338 -3564.095 C -961.5506 -3564.2177 -961.6234 -3564.4895 -961.5007 -3564.702 C -961.378 -3564.9146 -961.1061 -3564.9875 -960.8936 -3564.8648 L -957.8144 -3563.087 C -957.6018 -3562.9642 -957.529 -3562.6924 -957.6517 -3562.48 L -959.4295 -3559.4006 C -959.5522 -3559.188 -959.824 -3559.1152 -960.0366 -3559.238 C -960.2492 -3559.3607 -960.322 -3559.6325 -960.1993 -3559.845 Z" fill="#518738"/>
      </g>
      <g id="Graphic_6524"/>
    </g>
  </g>
</svg>
